X: 4
T: Charlie Mulvihill's
R: reel
M: 4/4
L: 1/8
K: Dmaj
|:dB|AF ~F2 G2 FG|AF ~F2 EGFE|~D2 FA dfec|dBAF E2 dB|
AF ~F2 GFGB|AGFD EGFE|~D2 FA dfec|dBAF D2:|
|:de|f3 a gfgb|afdf eB~B2|fgfe dfec|dBAF E2 fg|
af ~f2 bf ~f2|afdf eB ~B2|fgfe dfec|dBAF D2:|


Tune 2301	Setting 27215

